icons/evolvere-blue-folders-flat-vivid-dark-fallback/mimetypes/64/application-x-theme.svg

<?xml version="1.0" encoding="UTF-8" standalone="no"?>
<!-- Created with Inkscape (http://www.inkscape.org/) -->

<svg
   xmlns:dc="http://purl.org/dc/elements/1.1/"
   xmlns:cc="http://creativecommons.org/ns#"
   xmlns:rdf="http://www.w3.org/1999/02/22-rdf-syntax-ns#"
   xmlns:svg="http://www.w3.org/2000/svg"
   xmlns="http://www.w3.org/2000/svg"
   xmlns:sodipodi="http://sodipodi.sourceforge.net/DTD/sodipodi-0.dtd"
   xmlns:inkscape="http://www.inkscape.org/namespaces/inkscape"
   version="1.1"
   width="64"
   height="64"
   id="svg13094"
   inkscape:version="0.48.4 r9939"
   sodipodi:docname="application-x-theme.svg">
  <sodipodi:namedview
     pagecolor="#ffffff"
     bordercolor="#666666"
     borderopacity="1"
     objecttolerance="10"
     gridtolerance="10"
     guidetolerance="10"
     inkscape:pageopacity="0"
     inkscape:pageshadow="2"
     inkscape:window-width="1920"
     inkscape:window-height="1022"
     id="namedview78"
     showgrid="true"
     inkscape:snap-bbox="true"
     inkscape:bbox-paths="true"
     inkscape:bbox-nodes="true"
     inkscape:snap-bbox-edge-midpoints="true"
     inkscape:snap-bbox-midpoints="true"
     inkscape:object-paths="true"
     inkscape:snap-intersection-paths="true"
     inkscape:object-nodes="true"
     inkscape:snap-smooth-nodes="true"
     inkscape:snap-midpoints="true"
     inkscape:snap-object-midpoints="true"
     inkscape:snap-center="true"
     inkscape:zoom="12.28598"
     inkscape:cx="20.942753"
     inkscape:cy="37.234014"
     inkscape:window-x="-5"
     inkscape:window-y="23"
     inkscape:window-maximized="1"
     inkscape:current-layer="svg13094"
     showborder="false">
    <inkscape:grid
       type="xygrid"
       id="grid3066"
       empspacing="5"
       visible="true"
       enabled="true"
       snapvisiblegridlinesonly="true" />
  </sodipodi:namedview>
  <defs
     id="defs11">
    <linearGradient
       x1="48.917568"
       y1="46.213669"
       x2="32.669781"
       y2="24"
       id="linearGradient4259-6-1"
       gradientUnits="userSpaceOnUse">
      <stop
         id="stop3988-6-1"
         style="stop-color:#ffffff;stop-opacity:0.52975047"
         offset="0" />
      <stop
         id="stop3990-9-2"
         style="stop-color:#ffffff;stop-opacity:0"
         offset="1" />
    </linearGradient>
  </defs>
  <metadata
     id="metadata13099">
    <rdf:RDF>
      <cc:Work
         rdf:about="">
        <dc:format>image/svg+xml</dc:format>
        <dc:type
           rdf:resource="http://purl.org/dc/dcmitype/StillImage" />
        <dc:title />
      </cc:Work>
    </rdf:RDF>
  </metadata>
  <path
     inkscape:connector-curvature="0"
     d="M 4,0 64,0 64,62 4,62 z"
     id="path3960"
     style="fill:#c8d4dc;fill-opacity:1;fill-rule:nonzero" />
  <path
     inkscape:connector-curvature="0"
     style="fill:#222e33;fill-opacity:0.12192981;fill-rule:nonzero"
     d="M 60,2 60,33 35.677734,62 64,62 64,37 64,6 60,2 z"
     id="path3900" />
  <path
     inkscape:connector-curvature="0"
     d="M 0,2 60,2 60,33 34,64 0,64 z"
     id="path4257"
     style="fill:url(#linearGradient4259-6-1);fill-rule:nonzero" />
  <path
     inkscape:connector-curvature="0"
     d="M 0,2 60,2 60,33 34,64 0,64 z"
     id="path3982"
     style="color:#000000;fill:#edf0f2;fill-opacity:1;fill-rule:nonzero;stroke:none;stroke-width:1;marker:none;visibility:visible;display:inline;overflow:visible;enable-background:accumulate" />
  <path
     inkscape:connector-curvature="0"
     d="M 34,64 60,33 c -2.328567,2.776369 -4.36141,3 -11,3 H 37 v 15 c 0,6.644068 0.04437,9.370179 -3,13 z"
     id="path4278"
     style="fill:#cdd9df;fill-opacity:1;fill-rule:nonzero" />
  <path
     style="color:#000000;fill:#103e58;fill-opacity:0.1368421;fill-rule:nonzero;stroke:none;stroke-width:1;marker:none;visibility:visible;display:inline;overflow:visible;enable-background:accumulate"
     d="M 0 2 L 0 64 L 1 64 L 34 64 L 34 63 L 1 63 L 1 2 L 0 2 z "
     id="rect3784" />
  <g
     id="g3774"
     transform="translate(-0.0021419,-4.279e-4)">
    <path
       inkscape:connector-curvature="0"
       id="path3298"
       d="m 9.0021417,15.000428 c -1.0245666,0 -2.0457034,0.39412 -2.8274219,1.175504 -1.5634372,1.562766 -1.5634372,4.089655 0,5.652422 1.563436,1.562766 4.0914082,1.562766 5.6548452,0 1.563436,-1.562767 1.563436,-4.089656 0,-5.652422 -0.781719,-0.781384 -1.802856,-1.175504 -2.8274233,-1.175504 z"
       style="color:#000000;fill:#e66528;fill-opacity:1;fill-rule:nonzero;stroke:none;stroke-width:1;marker:none;visibility:visible;display:inline;overflow:visible;enable-background:accumulate" />
    <path
       inkscape:connector-curvature="0"
       id="path3302"
       d="m 17.002142,23.000428 c -1.024568,0 -2.045704,0.39412 -2.827423,1.175504 -1.563436,1.562766 -1.563436,4.089655 0,5.652422 1.563437,1.562766 4.091411,1.562766 5.654846,0 1.563436,-1.562767 1.563436,-4.089656 0,-5.652422 -0.781719,-0.781384 -1.802856,-1.175504 -2.827423,-1.175504 z"
       style="color:#000000;fill:#f2ba00;fill-opacity:1;fill-rule:nonzero;stroke:none;stroke-width:1;marker:none;visibility:visible;display:inline;overflow:visible;enable-background:accumulate" />
    <path
       inkscape:connector-curvature="0"
       id="path3306"
       d="m 17.002143,7.0004277 c -1.024568,0 -2.045705,0.3941202 -2.827424,1.1755038 -1.563436,1.5627661 -1.563436,4.0896555 0,5.6524225 1.563437,1.562766 4.091409,1.562766 5.654846,0 1.563436,-1.562767 1.563436,-4.0896564 0,-5.6524225 C 19.047846,7.3945479 18.02671,7.0004277 17.002143,7.0004277 z"
       style="color:#000000;fill:#65ab28;fill-opacity:1;fill-rule:nonzero;stroke:none;stroke-width:1;marker:none;visibility:visible;display:inline;overflow:visible;enable-background:accumulate" />
    <path
       inkscape:connector-curvature="0"
       id="path3310"
       d="m 25.002143,15.000428 c -1.024569,0 -2.045705,0.394119 -2.827425,1.175503 -1.563435,1.562767 -1.563435,4.089656 0,5.652423 1.563438,1.562765 4.09141,1.562765 5.654847,0 1.563436,-1.562767 1.563436,-4.089656 0,-5.652423 -0.781718,-0.781384 -1.802854,-1.175503 -2.827422,-1.175503 z"
       style="color:#000000;fill:#3b8ce1;fill-opacity:1;fill-rule:nonzero;stroke:none;stroke-width:1;marker:none;visibility:visible;display:inline;overflow:visible;enable-background:accumulate" />
  </g>
</svg>

<svg xmlns="http://www.w3.org/2000/svg" viewBox="0 0 64 64"><defs><linearGradient x1="48.918" y1="46.21" x2="32.67" y2="24" id="0" gradientUnits="userSpaceOnUse"><stop stop-color="#fff" stop-opacity=".53"/><stop offset="1" stop-color="#fff" stop-opacity="0"/></linearGradient></defs><path d="m4 0h60v62h-60z" fill="#c8d4dc"/><path d="m60 2v31l-24.322 29h28.322v-25-31l-4-4" fill="#222e33" fill-opacity=".122"/><path d="m0 2h60v31l-26 31h-34z" fill="url(#0)"/><path d="m0 2h60v31l-26 31h-34z" fill="#edf0f2" color="#000"/><path d="m34 64l26-31c-2.329 2.776-4.361 3-11 3h-12v15c0 6.644.044 9.37-3 13" fill="#cdd9df"/><g color="#000"><path d="m0 2v62h1 33v-1h-33v-61h-1" fill="#103e58" fill-opacity=".137"/><g transform="translate(-.002)"><path d="m9 15c-1.025 0-2.046.394-2.827 1.176-1.563 1.563-1.563 4.09 0 5.652 1.563 1.563 4.091 1.563 5.655 0 1.563-1.563 1.563-4.09 0-5.652-.782-.781-1.803-1.176-2.827-1.176" fill="#e66528"/><path d="m17 23c-1.025 0-2.046.394-2.827 1.176-1.563 1.563-1.563 4.09 0 5.652 1.563 1.563 4.091 1.563 5.655 0 1.563-1.563 1.563-4.09 0-5.652-.782-.781-1.803-1.176-2.827-1.176" fill="#f2ba00"/><path d="m17 7c-1.025 0-2.046.394-2.827 1.176-1.563 1.563-1.563 4.09 0 5.652 1.563 1.563 4.091 1.563 5.655 0 1.563-1.563 1.563-4.09 0-5.652-.782-.781-1.803-1.176-2.827-1.176" fill="#65ab28"/><path d="m25 15c-1.025 0-2.046.394-2.827 1.176-1.563 1.563-1.563 4.09 0 5.652 1.563 1.563 4.091 1.563 5.655 0 1.563-1.563 1.563-4.09 0-5.652-.782-.781-1.803-1.176-2.827-1.176" fill="#3b8ce1"/></g></g></svg>
